actions/22/view-list-details.svg

<svg xmlns="http://www.w3.org/2000/svg" viewBox="0 0 22 22">
  <defs id="defs3051">
<style type="text/css" id="current-color-scheme">.ColorScheme-Text {color:#fcfcfc;}</style>
  </defs>
 <path 
     style="fill:currentColor;fill-opacity:1;stroke:none" 
     d="m 3,6 c 0,3 0,4 0,4 h 7 V 3 H 6 C 6,3 3,3 3,6 Z M 4,6 C 4,4 6,4 6,4 H 9 V 9 H 4 C 4,9 4,8 4,6 Z m 8,-2 v 1 h 7 V 4 Z m 0,4 v 1 h 7 V 8 Z m -9,4 c 0,0 0,1 0,4 0,3 3,3 3,3 h 4 v -7 z m 9,1 v 1 h 4 v -1 z m 0,4 v 1 h 4 v -1 z"
	 class="ColorScheme-Text"
     />
</svg>

<svg xmlns="http://www.w3.org/2000/svg" viewBox="0 0 22 22">
  <defs id="defs3051">
    <style type="text/css" id="current-color-scheme">
      .ColorScheme-Text {
        color:#eff0f1;
      }
      </style>
  </defs>
 <path 
     style="fill:currentColor;fill-opacity:1;stroke:none" 
     d="M 3 3 L 3 10 L 10 10 L 10 3 L 3 3 z M 4 4 L 9 4 L 9 9 L 4 9 L 4 4 z M 12 4 L 12 5 L 19 5 L 19 4 L 12 4 z M 12 8 L 12 9 L 19 9 L 19 8 L 12 8 z M 3 12 L 3 19 L 10 19 L 10 12 L 3 12 z M 12 13 L 12 14 L 16 14 L 16 13 L 12 13 z M 12 17 L 12 18 L 16 18 L 16 17 L 12 17 z "
	 class="ColorScheme-Text"
     />
</svg>
